svgs/yandex_mail.svg

<svg width="192" height="192" viewBox="0 0 192 192" fill="none" xmlns="http://www.w3.org/2000/svg">
<rect x="22" y="46" width="148" height="100" stroke="black" stroke-width="12" stroke-linejoin="round"/>
<path d="M30 54L84.6863 108.686C90.9347 114.935 101.065 114.935 107.314 108.686L162 54" stroke="black" stroke-width="12" stroke-linecap="round" stroke-linejoin="round"/>
<path fill-rule="evenodd" clip-rule="evenodd" d="M116.531 99.2632L159.757 142.489C162.101 144.833 165.899 144.833 168.243 142.489C170.586 140.146 170.586 136.347 168.243 134.004L125.239 91L116.531 99.2632ZM70.3184 91.4431L27.7574 134.004C25.4142 136.347 25.4142 140.146 27.7574 142.489C30.1005 144.833 33.8995 144.833 36.2426 142.489L78.5439 100.188L70.3184 91.4431Z" fill="black"/>
</svg>

<svg xmlns="http://www.w3.org/2000/svg" width="192" height="192" fill="none" xmlns:v="https://vecta.io/nano"><g stroke="#000" stroke-width="12" stroke-linejoin="round"><path d="M22 46h148v100H22z"/><path d="M30 54l54.686 54.686c6.248 6.249 16.379 6.249 22.628 0L162 54" stroke-linecap="round"/></g><path fill-rule="evenodd" d="M116.531 99.263l43.226 43.226a6 6 0 0 0 8.486-8.485L125.239 91l-8.708 8.263zm-46.213-7.82l-42.561 42.561a6 6 0 0 0 8.485 8.485l42.301-42.301-8.225-8.745z" fill="#000"/></svg>
